public/assets/standards/rtc/feat-icon-2.svg

<svg width="68" height="68" viewBox="0 0 68 68" fill="none" xmlns="http://www.w3.org/2000/svg">
<path d="M33.9999 46.68C46.338 46.68 56.3399 36.678 56.3399 24.34C56.3399 12.002 46.338 2 33.9999 2C21.6619 2 11.6599 12.002 11.6599 24.34C11.6599 36.678 21.6619 46.68 33.9999 46.68Z" fill="#A5C352"/>
<path d="M53.3999 24.34C53.3999 24.34 44.7099 36.7299 33.9999 36.7299C23.2899 36.7299 14.5999 24.34 14.5999 24.34C14.5999 24.34 23.2899 11.95 33.9999 11.95C44.7099 11.95 53.3999 24.34 53.3999 24.34Z" fill="white"/>
<path d="M33.9999 31.0299C37.761 31.0299 40.8099 27.981 40.8099 24.2199C40.8099 20.4589 37.761 17.4099 33.9999 17.4099C30.2389 17.4099 27.1899 20.4589 27.1899 24.2199C27.1899 27.981 30.2389 31.0299 33.9999 31.0299Z" fill="#006D68"/>
<path d="M34.0001 67.66C33.0901 67.66 32.3401 66.92 32.3401 66V46.67C32.3401 45.75 33.0801 45.01 34.0001 45.01C34.9201 45.01 35.6601 45.75 35.6601 46.67V66C35.6601 66.92 34.9201 67.66 34.0001 67.66Z" fill="#006D68"/>
<path d="M15.23 50.5399C22.81 48.3599 30.87 52.1199 34 59.3699C26.41 61.5799 18.38 57.7599 15.23 50.5399Z" fill="#006D68"/>
<path d="M52.77 50.5399C49.62 57.7699 41.58 61.5799 34 59.3699C37.13 52.1199 45.19 48.3599 52.77 50.5399Z" fill="#006D68"/>
</svg>

<svg xmlns="http://www.w3.org/2000/svg" width="68" height="68" fill="none" viewBox="0 0 68 68"><path fill="#a5c352" d="M34 46.68c12.338 0 22.34-10.002 22.34-22.34S46.338 2 34 2 11.66 12.002 11.66 24.34 21.662 46.68 34 46.68"/><path fill="#fff" d="M53.4 24.34S44.71 36.73 34 36.73 14.6 24.34 14.6 24.34 23.29 11.95 34 11.95s19.4 12.39 19.4 12.39"/><path fill="#006d68" d="M34 31.03a6.81 6.81 0 1 0 0-13.62 6.81 6.81 0 0 0 0 13.62m0 36.63c-.91 0-1.66-.74-1.66-1.66V46.67c0-.92.74-1.66 1.66-1.66s1.66.74 1.66 1.66V66c0 .92-.74 1.66-1.66 1.66"/><path fill="#006d68" d="M15.23 50.54c7.58-2.18 15.64 1.58 18.77 8.83-7.59 2.21-15.62-1.61-18.77-8.83m37.54 0C49.62 57.77 41.58 61.58 34 59.37c3.13-7.25 11.19-11.01 18.77-8.83"/></svg>
